X:1
T:Twelfth Street Rag - trio
T:Twelfth Street Rag - trio Euday L Bowman
%%score 1 2 3
L:1/8
Q:1/2=100
M:2/2
K:Ab
V:1 treble nm="Flute" snm="Fl."
V:2 treble transpose=-2 nm="B♭ Clarinet" snm="B♭ Cl."
V:3 treble transpose=-2 nm="B♭ Clarinet" snm="B♭ Cl."
V:1
!mf! ((e=d))ef e2 E2 | z4 z2 .e2 |!p! e!<(! e2 e f2 ^f2!<)! |!f! !>!g2 z2 z4 | %4
!mf! (ag)f(a g)f(ag) | f(ag)f (ag)f z |"^sim" agfa gfag | f z z2 z4 | agfa gfag | fagf agf z | %10
 agfa gfag | f z z2 z4 | agfa gfag | fagf agf z | agfa gfag | f z B2 A2 G2 |!p! c3 B- B z z2 | %17
!<(! g3 f- f z z2!<)! |!f! .e2"^Stamp!" aa a2 a2 | a2 z2 z4 | A2 z2 E2 z2 | A2 z2!p! !>!e2 (^d.e) | %22
 B2 z2 E2 z2 | B2 E2 !>!g2 (^f.g) | z2 d2 z2 d2 | z2 (e2 =d2) _d2 | c2!<(! Bc defg!<)! | %27
!mf! .a2 z2 z !>!a3 | ._g2!f! (ab) c' !>!g3 | .f2 z2 z f3 | =d2 z2 z _c'3 | c'_c'ba- a z z2 | %32
 b3 b- b=a b2 | a2 z2 z4 | z8 | z8 |"_solo" (E=D)EF E2 z2 |!p! e!<(! e2 e f2 ^f2!<)! | %38
!f! g2 z2 g2 z2 |!p! !plus!A2 !open!A>!open!A !plus!A2 !open!A>!open!A | %40
 !plus!A2 !open!A>!open!A !plus!A2 !open!A>!open!A | G2 G>G G2 G>G | G2 G>G G2 G>G | %43
 G2 G>G G2 G>G | G2 G>G G2 G>G | A2 A>A A2 A>A | A2 z2 z E F2 | A2 z2 E2 z2 | A>A G2 F2 E2 | %49
 E2 e=d _d2 dc | B2 B2 A2 G2 |!p!!p! A3 A- A z z2 |!<(! g3 f- f z z2!<)! |!f! .e2 z2 z4 | %54
"^stamp" b2 z2 z4 |!p! !plus!A2 !open!A>!open!A !plus!A2 !open!A>!open!A | A2 A>A A2 A>A | %57
 G2 G>G G2 G>G | G2 G>G G2 G>G | G2 G>G G2 G>G | G2 G>G G2 G>G | !~(!a4 !~)!e4 | A2 z2 z E F2 | %63
!f!!f! !>!a2 z2 z !>!a3 | ._g2!f! (ab) c' !>!g3 | .f2 z2 z !>!f3 |!mf! A=A!<(!_cd e=e_ga!<)! | %67
!>(! c'_c'ba- a z z2!>)! | b3 b- b=a b2 |!f!!f! !>!a2 ef z e c2 | !>!A2 z2 z cd=d | (e=d)ef e2 z2 | %72
 z8 |!p! b!<(!=a_ag _gf=e_e!<)! |!f! !>!g2 z2 z4 |"^solo" (ag)f(a g)f"^sim"ag | fagf agf z | %77
 agfa gfag | f z z2 z4 | agfa gfag | fagf agf z | agfa gfag | f z z2 z4 | agfa gfag | fagf agf z | %85
 agfa gfag | f z d2 z2 d2 | c3 B- B4 | g3 f- f4 | (!>!b8 | e'2) z2 z4 | z8 | AGFA GFAG | %93
 FAGF AGF z | AGFA GFAG | F z z2 z4 | AGFA GFAG | F z z2 z4 |!<(! e2 a2 b2 c'2!<)! | %99
 a2 b2 c'2 d'2 |!f! !>!e'2 z2 z !>!e'3 | .e'2 z2 z !>!e'3 | .d'2 z2 z !>!d'3 | =e'8 | !>!e'8 | %105
 =d'3 d'- d'd' _d'2 | c'2 ef- fe c2 |"^Stamp!" a2 a2 !>!a2 z2 |] %108
V:2
[K:Bb]!mf! (f=e)fg f2 .c2 | f=efg f2 .c2 |!p! f!<(! f2 f =e2 e2!<)! |!f! !>!f2 z2 F2 z2 | %4
!mf! (dc)B(d c)B(dc) | B(dc)B (dc)B z |"^sim" edce dced | c z z2 z4 | edce dced | cedc edc z | %10
 dcBd cBdc | B z z2 z4 | dcBd cBdc | BdcB dcB z | edce dced | c z E2 D2 _D2 |!p! G3 G- G z z2 | %17
!<(! d3 _d- d z z2!<)! |!f! .e2"^Stamp!" bb b2 b2 | e2 z2 z"_solo" (f .g2) | (ba)g(b a)g(ba) | %21
"^sim" gbag!p! bag z | bagb agba | g z z2 !>!f2 (=e.f) | F2 G2 A2 B2 | c2 (d2 e2) f2 | %26
 b2!<(! AB cdec!<)! |!mf! .f2 z2 z !>!f3 | .f2 z2 z !>!f3 | .E2 (EF) G B3 | _d2 z2 z =e3 | %31
 ba_ag- g2 z2 | g3 g- g^f =f2 | f2 (fg) z (f d2) | !>!B2 z2 z4 | z8 | z8 | %37
!p! c!<(! c2 c _d2 =d2!<)! |!f! e2 z2 e2 z2 | %39
!p! !plus!F2 !open!^F>!open!F !plus!G2 !open!F>!open!F | %40
 !plus!F2 !open!^F>!open!F !plus!G2 !open!F>!open!F | E2 =E>E F2 E>E | E2 =E>E F2 E>E | %43
 E2 =E>E F2 E>E | E2 =E>E F2 E>E | F2 ^F>F G2 F>F | F2 ^F>F G2 F>F | F2 ^F>F G2 F>F | %48
 F2 ^F>F G2 F>F | E2 =E>E F2 E>E | E2 =E>E F2 E>E |!p! G3 G- G z z2 |!<(! d3 _d- d z z2!<)! | %53
!f! .e2 z2 z4 |"^stamp" c'2 z2 z4 |!p! !plus!F2 !open!^F>!open!F !plus!G2 !open!F>!open!F | %56
 F2 ^F>F G2 F>F | E2 =E>E F2 E>E | E2 =E>E F2 E>E | E2 =E>E F2 E>E | E2 =E>E F2 E>E | %61
 F2 ^F>F G2 F>F | F2 ^F>F G2 F>F |!f!!f! !>!B2 z2 z !>!B3 | .B2 z2 z !>!B3 | .E2!f! (EF) G !>!B3 | %66
!mf!!mf!!<(! _d2 z2 z b3!<)! |!>(! z f2!f! (f g)g b2!>)! | d'3 c'- c'4 |!f! !>!f2 FG z F D2 | %70
 !>!B,2 z2 z4 | z8 | z8 |!p! a!<(!_ag^f =f=e_ed!<)! |!f! !>!c2 z2 z4 | z2!mp! F4 G2 | %76
 B c2 d- dc B2 | d f2 f- f4 | z2 f=e- ee f2 | a2 c'4 a2 | g2 f2 g2 a2 | a b2 b- ba g2 | f2 z2 z4 | %83
 B2 d2 F2 d2 | B2 d2 F2 d2 | c2 c2 F2 c2 | c2 F2 G2 A2 | B3 B- B4 | g3 =e- e4 | z2 (!>!a6 | %90
 .c'2) z2 z4 | z8 |!pp! D2 E2 F2 B2 | F2 G2 B2 d2 |!pp! F2 G2 A2 B2 |"^cres" A2 B2 c2 e2 | %96
 c2 d2 e2 f2 |"^sen" e2 f2 g2 a2 |!<(! d2 f2 g2 a2!<)! | f2 g2"^do" a2 f2 | %100
!f!!f! !>!b2 z2 z !>!d'3 | .d'2 z2 z !>!_a3 | .b2 z2 z !>!g3 | _d'4 _GB_c_d | !>!d'8 | %105
 c'3 c'- c'b a2 | b2 de- ed B2 |"^Stamp!" c'2 c'2 !>!f2 z2 |] %108
V:3
[K:Bb]!mf! z4 z2 .A2 | F=EFG F2 A2 |!p! A!<(! A2 A B2 =B2!<)! |!f! !>!c2 z2 F2 z2 | %4
!mf! B,2 D2 F2 D2 | B,2 D2 F2 D2 | F2 E2 C2 E2 | F2 !>!C2 !>!D2 !>!E2 | F2 (AB) cBA z | %9
 A2 (CD) EDC z | F2 D2 E2 =E2 | F2 F2 G2 A2 | B2 D2 D2 F2 | B2 D2 D2 F2 | F2 E2 C2 E2 | %15
 E2!>(! A2 G2 F2!>)! |!p! =E3 E- E z z2 |!<(! B3 B- B z z2!<)! |!f! .A2"^Stamp!" ff f2 f2 | %19
 f2 z2 z4 | z2 (d6 | c4) B2 (^c.d) | z2 (e6 | d4) c2 z2 | BAGB AGBA | GBAG BAG z | BAGB AGBA | %27
 .G2!f! (GA) B !>!d3 | .d2 z2 z !>!d3 | .B2 z2 z B3 | (_G_A)B_c _de_f_g | z f2 f gg b2 | %32
 d'3 c'- c'4 | b2 (FG) z (F D2) | !>!B,2 z2 z"_solo" DE=E | (F=E)FG F2 z2 | z8 | %37
!p!!p! A!<(!!<(! A2 A B2 =B2!<)!!<)! |!f!!f! c2 !>!F2 !>!G2 !>!A2 | z2!p!!p!"^solo" d4 e2 | f4 b4 | %41
 z2 d'4 c'2 | a4 f4 | z2 d'4 e'2 | d'4 c'4 | b2"_solo"!f! (!>!_D2 (!>!D2) (!>!D2) | %46
 _D) =D2 F- F2 G2 | F_D=DF A_AGF | DE=EF- FE _E2 | z _A=Ac edce | c c2 A- A_A =A2 | %51
!p! =E3 E- E z z2 |!<(! =E3 E- E z z2!<)! |!f! .A2 z2 z4 |"^stamp" c'2"^solo" _d'2 d'2 d'2 | %55
 b4 f4!mf! | !>!b.b a2 g2 f2 | c=Bce- ef(_a=a) | c'=b_ba- af c2 | (c'=b)_ba- ag f2 | ffgg _aa=aa | %61
 z2 _d2 d2 d2 | _d =d2 f- f2 g2 |!f! !>!G2!f! (GA) B !>!d3 | .d2 z2 z !>!d3 | .B2 z2 z !>!B3 | %66
!mf! _G!<(!_AB_c _def_g!<)! |!>(! =f=e_e=d- =d z z2!>)! | =e3 e- e_e e2 |!f! !>!d2 z2 z4 | z8 | %71
 z8 | (f=e)fg f2 z2 |!p! C!<(!DEF GABc!<)! |!f! !>!e2 z2 z4 | z2!mp! D4 E2 | G A2 B- BA G2 | %77
 B d2 c- c4 | z2 c=B- BB c2 | e2 a4 g2 | e2 e2 f2 e2 | e d2 d- df e2 | d2 z2 z"^solo" d e2 | %83
 f4 _d4 | d4 B4 | e2 c2 A4 | c4 e4 | d3 c- c4 | d3 c- c4 | z4 (!>!e4 | f>)f e2 d2 c2 | %91
 f>f g2 ^g2 a2 |!pp! b2 C2 D2 F2 | D2 E2 F2 B2 | C2 D2 E2 F2 |"^cres" E2 F2 G2 A2 | A2 B2 c2 e2 | %97
"^sen" c2 d2 e2 f2 |!<(! B2 d2 e2 f2!<)! | d2 e2"^do" f2 e2 |!f!!f! !>!B2 z2 z !>!B3 | %101
 .B2 z2 z !>!B3 | .E2 z2 z !>!E3 | _G,_A,B,=B, _DEF^F | z2 !>!=d6 | c3 c- cB A2 | B2 Bc- cB F2 | %107
"^Stamp!" e2 e2 !>!B2 z2 |] %108

